image/zones.svg

<svg fill="none" height="347" viewBox="0 0 240 347" width="240" xmlns="http://www.w3.org/2000/svg" xmlns:xlink="http://www.w3.org/1999/xlink"><linearGradient id="a"><stop offset="0" stop-color="#ec6547"/><stop offset="1" stop-color="#ec6547" stop-opacity="0"/></linearGradient><linearGradient id="b" gradientUnits="userSpaceOnUse" x1="95.9063" x2="100.719" xlink:href="#a" y1="250.594" y2="269.844"/><linearGradient id="c" gradientUnits="userSpaceOnUse" x1="143" x2="139.906" xlink:href="#a" y1="246.469" y2="272.25"/><path d="m103.469 303.532 3.437-.688h.344l4.125 1.031 3.437.688 3.094.344h2.063l-.344 41.937h-9.969l-6.531-6.187-4.8125-5.157-3.7813-4.812-3.7812-5.156-5.1562-7.563-2.4063-3.781 9.625-6.531 3.4375-1.719 2.4062-1.375 2.4058-.688z" fill="#e7ac44" fill-opacity=".75"/><path d="m31.2812 182.875.6876-2.75 2.75.687 7.5624 2.75 13.4063 5.157 2.0625 2.062 6.1875 4.813 11 8.937 8.25 6.531-1.0313 7.907v7.906 6.875l1.0313 6.875-8.25-2.406-7.2187-1.719-6.5313-1.719-10.6563-3.093-9.2812-2.407-13.0625-3.093v-7.219-6.875-5.5-3.782l.6875-4.468.6875-4.813 1.0313-6.531z" fill="#e7ac44" fill-opacity=".75"/><path d="m208.312 182.875-.687-2.75-2.75.687-7.563 2.75-13.406 5.157-2.062 2.062-6.188 4.813-11 8.937-8.25 6.531 1.032 7.907v7.906 6.875l-1.032 6.875 8.25-2.406 7.219-1.719 6.531-1.719 10.656-3.093 9.282-2.407 13.062-3.093v-7.219-6.875-5.5-3.782l-.687-4.468-.688-4.813-1.031-6.531z" fill="#e7ac44" fill-opacity=".75"/><path d="m36.7812 228.25-8.5937-2.062 8.5937 10.312 9.2813 11.344 8.5937 11.344 9.9688 13.062 5.1562-8.938 4.125-7.906 5.5-8.594 3.7813-6.187-3.0937-1.031-8.5938-2.063-10.3125-2.406-8.25-2.406-7.5625-2.063z" fill="#e7ac44" fill-opacity=".75"/><path d="m202.812 228.25 8.594-2.062-8.594 10.312-9.281 11.344-8.593 11.344-9.969 13.062-5.157-8.938-4.124-7.906-5.5-8.594-3.782-6.187 3.094-1.031 8.594-2.063 10.312-2.406 8.25-2.406 7.563-2.063z" fill="#e7ac44" fill-opacity=".75"/><path d="m17.875 176.344-11.6875-2.75v6.187 8.25l2.0625 6.875 4.125 9.969 5.5 9.969 5.8438 6.875 4.125 4.125v-2.406-16.5l1.0312-8.938 1.7188-12.031 1.0312-6.188z" fill="#e7ac44" fill-opacity=".75"/><path d="m221.375 176.344 11.344-3.438.343 7.219v8.25l-1.718 6.875-4.125 9.969-5.5 9.969-5.844 6.874-4.469 3.782v-2.406-16.157l-.687-8.937-1.719-12.032-1.375-6.187z" fill="#e7ac44" fill-opacity=".75"/><path d="m113.094 158.469-6.875 1.375v.344l3.781 4.124 5.156 6.188h4.125.688l3.781.688 6.875-8.594 3.094-2.75-13.75-2.063z" fill="#e7ac44" fill-opacity=".75"/><path d="m89.0312 242.344-5.8437-1.719-13.4063 23.031 1.7188 14.438h2.4062l1.7188 1.031 4.125 1.375h7.2188l5.5-.688 4.8124-.687 4.1248-1.031 3.438-.344 5.5 1.031h9.281v-35.75h-2.75l-7.219.344h-6.875-4.4685l-4.8125-.344z" fill="url(#b)"/><path d="m150.562 242.344 5.844-1.719 13.406 23.031-1.718 14.438h-2.406l-1.719 1.031-4.125 1.375h-7.219l-5.5-.688-4.813-.687-4.124-1.031-3.438-.344-5.5 1.031h-9.281l-.344-35.75h3.094l7.219.344h6.874 4.469l4.813-.344z" fill="url(#c)" fill-opacity=".75"/><path d="m9.625 218.969-1.71875-6.531-7.90625 5.5 2.40625 5.5 1.03125 2.062.34375 6.531.6875 2.407 1.03125 2.406 2.0625 1.718h2.40625l2.40625-.343 1.0312-.688-.6874-4.125-1.7188-6.531z" fill="#ec6547" fill-opacity=".75"/><path d="m229.625 218.969 1.468-5.581c.122-.461.666-.662 1.058-.389l6.635 4.616c.27.187.369.539.238.84l-2.18 4.983-.967 1.934c-.043.084-.067.177-.072.271l-.332 6.31c-.003.052-.011.103-.026.153l-.643 2.252c-.015.053-.037.104-.064.152l-1.272 2.226c-.041.071-.094.135-.157.187l-1.817 1.515c-.098.081-.217.134-.343.152l-2.053.293c-.105.015-.213.006-.314-.028l-1.837-.612c-.048-.016-.094-.037-.137-.063l-1.168-.701c-.282-.169-.405-.515-.292-.824l1.181-3.249 1.719-6.531z" fill="#ec6547" fill-opacity=".75"/><path d="m16.8438 140.594 2.4062-1.719 10.6562 21.656 3.0938 12.375-1.375 6.875-10.6562-2.75-14.7813-4.125v-6.531-7.219l1.71875-3.781z" fill="#ec6547" fill-opacity=".75"/><path d="m222.062 140.594-2.406-1.719-10.656 21.656-3.094 12.375 1.375 6.875 10.657-2.75 14.781-4.125v-6.531-7.219l-1.719-3.781z" fill="#ec6547" fill-opacity=".75"/><path d="m49.1562 39.1875-11.6494 26.3827c-.0251.0567-.038.1181-.038.1801 0 .1552.0805.2991.2128.3802l66.0394 40.5085c.286.176.61.279.944.3l15.304.999 15.248-.995c.369-.024.726-.147 1.031-.357l18.096-12.3985 22.687-12.7187 23.55-14.5171c.883-.5442 1.224-1.6594.798-2.6046l-8.879-19.6596-13.401-23.786c-.226-.4019-.581-.7162-1.007-.8929l-13.436-5.5711-44.401-14.235615c-.41-.1312985-.85-.1312992-1.26-.000001l-44.4012 14.235616-13.7474 5.2371c-.4462.17-.8196.4895-1.0565.9041z" fill="#ec6547"/><path d="m103.932 134.459-7.2777 1.698c-1.3599.317-1.9843 1.895-1.2097 3.057l1.8366 2.755 3.4378 6.875 2.75 6.531 1.738 2.98c.405.694 1.186 1.079 1.982.977l11.847-1.519c.163-.021.328-.022.491-.003l12.795 1.524c.838.099 1.648-.337 2.026-1.092l2.464-4.93 4.813-8.937 3.437-5.844c.516-1.031-.103-2.269-1.237-2.475l-8.898-1.617c-.118-.022-.237-.033-.357-.033h-15.289-14.895c-.152 0-.305.018-.454.053z" fill="#ec6547"/><g fill-opacity=".75"><path d="m136.469 303.532-3.438-.688h-.343l-4.126 1.031-3.437.688-3.094.344h-2.062l.343 41.937h9.969l6.531-6.187 4.813-5.157 3.781-4.812 3.782-5.156 5.156-7.563 2.406-3.781-9.625-6.531-3.437-1.719-2.407-1.375-2.406-.688z" fill="#ae6c9e"/><path d="m94.1875 201.438-11 9.281-.6875 4.125-.3438 7.218v8.594l1.0313 9.969 8.9375 2.406 4.4688.344 22.6872-.687-20.281-.344-4.125-2.063-2.4062-2.062-.6876-2.407v-2.406-1.718l.3438-1.719 1.375-1.375 1.7188-2.063v-4.812-5.157l-.3438-5.843v-5.157z" fill="#ae6c9e"/><path d="m145.062 201.438 11.344 9.624.688 5.157.344 5.843v8.938l-1.032 9.625-5.844 1.719-4.812.687-10.656.344-15.125-.344v-.343l20.281-.344 4.125-2.063 1.719-2.062 1.375-2.407v-2.406-1.718l-.344-1.719-1.375-1.375-1.719-2.063v-4.812-5.157l.344-5.843v-5.157z" fill="#ae6c9e"/><path d="m69.7812 263.657-4.8124 8.593 6.5312 7.219v-3.094z" fill="#ae6c9e"/><path d="m170.156 263.657 4.813 8.593-6.531 7.219v-4.125z" fill="#ae6c9e"/><path d="m115.156 172.906v-2.062-.344h4.469l3.781.344.688 6.187 6.187 20.625-10.312-7.218-9.625 5.843.687-1.719 1.375-5.5 1.719-6.874 1.031-5.157z" fill="#ae6c9e"/><path d="m39.1875 182.188-7.2187-2.063 1.0312-8.594h3.4375 2.75l3.0937-.687 2.75-1.375 2.75-.688h2.4063l5.1563.688h10.3124l6.5313-.688 2.4063-1.031 6.1874 5.844 7.9063 6.531-7.9063 4.469-4.4687 2.062-4.8125 1.375-4.4688.688h-6.875-4.8124l-1.7188-.688-8.5938-3.437z" fill="#ae6c9e"/><path d="m199.719 182.188 7.219-2.063-1.032-8.594h-3.437-2.75l-3.094-.687-2.75-1.375-2.75-.688h-2.406l-5.157.688h-10.312l-6.531-.688-2.407-1.031-6.187 5.844-7.906 6.531 7.906 4.469 4.469 2.062 4.812 1.375 4.469.688h6.875 4.812l1.719-.688 8.594-3.437z" fill="#ae6c9e"/><path d="m103.812 106.906-18.9058-12.031 1.7188 24.063 7.2188 17.531 11.0002-2.063h14.781 15.813l10.656 2.063 6.875-17.531 1.031-24.4068-18.562 12.3748-15.813 1.032z" fill="#ae6c9e"/><path d="m125.125 304.563-5.5.344.328-36.747c.01-1.089.585-2.095 1.519-2.655.144-.086.293-.161.448-.223l1.486-.594 1.161-.581c.599-.299 1.234-.517 1.89-.648.486-.097.98-.146 1.476-.146h.114c.571 0 1.142.056 1.702.169l.876.175 4.813 1.031 4.468 1.031 8.594 3.781 6.875 3.438 7.219 2.062 3.781.344 2.063.688v2.406h-.344l-1.719 1.031-3.437 1.719-2.407 2.406-4.125 5.156-4.125 4.125-3.781 2.75-4.125 2.407-5.844 2.406-6.531 2.406z" fill="#ae6c9e"/><path d="m114.469 304.563 5.5.344-.328-36.747c-.01-1.089-.586-2.095-1.52-2.655-.143-.086-.293-.161-.448-.223l-1.485-.594-1.162-.581c-.598-.299-1.233-.517-1.889-.648-.486-.097-.98-.146-1.476-.146h-.114c-.572 0-1.142.056-1.702.169l-.876.175-4.813 1.031-2.955.682c-1.007.232-1.9895.559-2.9351.975l-7.1721 3.155-6.875 3.438-7.2188 2.062-3.7812.344-2.0626.688v2.406h.3438l1.7188 1.031 3.4374 1.719 2.4063 2.406 4.125 5.156 4.125 4.125 3.7813 2.75 4.125 2.407 5.8432 2.406 6.532 2.406z" fill="#ae6c9e"/></g></svg>

<svg width="240" height="347" viewBox="0 0 240 347" fill="none" xmlns="http://www.w3.org/2000/svg">
<path d="M103.469 303.532L106.906 302.844H107.25L111.375 303.875L114.812 304.563L117.906 304.907H119.969L119.625 346.844H109.656L103.125 340.657L98.3125 335.5L94.5312 330.688L90.75 325.532L85.5938 317.969L83.1875 314.188L92.8125 307.657L96.25 305.938L98.6562 304.563L101.062 303.875L103.469 303.532Z" fill="#E7AC44" fill-opacity="0.75" style="mix-blend-mode:multiply"/>
<path d="M31.2812 182.875L31.9688 180.125L34.7188 180.812L42.2812 183.562L55.6875 188.719L57.75 190.781L63.9375 195.594L74.9375 204.531L83.1875 211.062L82.1562 218.969V226.875V233.75L83.1875 240.625L74.9375 238.219L67.7188 236.5L61.1875 234.781L50.5312 231.688L41.25 229.281L28.1875 226.188V218.969V212.094V206.594V202.812L28.875 198.344L29.5625 193.531L30.5938 187L31.2812 182.875Z" fill="#E7AC44" fill-opacity="0.75" style="mix-blend-mode:multiply"/>
<path d="M208.312 182.875L207.625 180.125L204.875 180.812L197.312 183.562L183.906 188.719L181.844 190.781L175.656 195.594L164.656 204.531L156.406 211.062L157.438 218.969V226.875V233.75L156.406 240.625L164.656 238.219L171.875 236.5L178.406 234.781L189.062 231.688L198.344 229.281L211.406 226.188V218.969V212.094V206.594V202.812L210.719 198.344L210.031 193.531L209 187L208.312 182.875Z" fill="#E7AC44" fill-opacity="0.75" style="mix-blend-mode:multiply"/>
<path d="M36.7812 228.25L28.1875 226.188L36.7812 236.5L46.0625 247.844L54.6562 259.188L64.625 272.25L69.7812 263.312L73.9062 255.406L79.4062 246.812L83.1875 240.625L80.0938 239.594L71.5 237.531L61.1875 235.125L52.9375 232.719L45.375 230.656L36.7812 228.25Z" fill="#E7AC44" fill-opacity="0.75" style="mix-blend-mode:multiply"/>
<path d="M202.812 228.25L211.406 226.188L202.812 236.5L193.531 247.844L184.938 259.188L174.969 272.25L169.812 263.312L165.688 255.406L160.188 246.812L156.406 240.625L159.5 239.594L168.094 237.531L178.406 235.125L186.656 232.719L194.219 230.656L202.812 228.25Z" fill="#E7AC44" fill-opacity="0.75" style="mix-blend-mode:multiply"/>
<path d="M17.875 176.344L6.1875 173.594V179.781V188.031L8.25 194.906L12.375 204.875L17.875 214.844L23.7188 221.719L27.8438 225.844V223.438V206.938L28.875 198L30.5938 185.969L31.625 179.781L17.875 176.344Z" fill="#E7AC44" fill-opacity="0.75" style="mix-blend-mode:multiply"/>
<path d="M221.375 176.344L232.719 172.906L233.062 180.125V188.375L231.344 195.25L227.219 205.219L221.719 215.188L215.875 222.062L211.406 225.844V223.438V207.281L210.719 198.344L209 186.312L207.625 180.125L221.375 176.344Z" fill="#E7AC44" fill-opacity="0.75" style="mix-blend-mode:multiply"/>
<path d="M113.094 158.469L106.219 159.844V160.188L110 164.312L115.156 170.5H119.281H119.969L123.75 171.188L130.625 162.594L133.719 159.844L119.969 157.781L113.094 158.469Z" fill="#E7AC44" fill-opacity="0.75" style="mix-blend-mode:multiply"/>
<path d="M89.0312 242.344L83.1875 240.625L69.7812 263.656L71.5 278.094H73.9062L75.625 279.125L79.75 280.5H86.9688L92.4688 279.812L97.2812 279.125L101.406 278.094L104.844 277.75L110.344 278.781H119.625V243.031H116.875L109.656 243.375H102.781H98.3125L93.5 243.031L89.0312 242.344Z" fill="url(#paint0_linear_237_2736)" style="mix-blend-mode:multiply"/>
<path d="M150.562 242.344L156.406 240.625L169.812 263.656L168.094 278.094H165.688L163.969 279.125L159.844 280.5H152.625L147.125 279.812L142.312 279.125L138.188 278.094L134.75 277.75L129.25 278.781H119.969L119.625 243.031H122.719L129.938 243.375H136.812H141.281L146.094 243.031L150.562 242.344Z" fill="url(#paint1_linear_237_2736)" fill-opacity="0.75" style="mix-blend-mode:multiply"/>
<path d="M9.625 218.969L7.90625 212.438L0 217.938L2.40625 223.438L3.4375 225.5L3.78125 232.031L4.46875 234.438L5.5 236.844L7.5625 238.562H9.96875L12.375 238.219L13.4062 237.531L12.7188 233.406L11 226.875L9.625 218.969Z" fill="#EC6547" fill-opacity="0.75" style="mix-blend-mode:multiply"/>
<path d="M229.625 218.969L231.093 213.388C231.215 212.927 231.759 212.726 232.151 212.999L238.786 217.615C239.056 217.802 239.155 218.154 239.024 218.455L236.844 223.438L235.877 225.372C235.834 225.456 235.81 225.549 235.805 225.643L235.473 231.953C235.47 232.005 235.462 232.056 235.447 232.106L234.804 234.358C234.789 234.411 234.767 234.462 234.74 234.51L233.468 236.736C233.427 236.807 233.374 236.871 233.311 236.923L231.494 238.438C231.396 238.519 231.277 238.572 231.151 238.59L229.098 238.883C228.993 238.898 228.885 238.889 228.784 238.855L226.947 238.243C226.899 238.227 226.853 238.206 226.81 238.18L225.642 237.479C225.36 237.31 225.237 236.964 225.35 236.655L226.531 233.406L228.25 226.875L229.625 218.969Z" fill="#EC6547" fill-opacity="0.75" style="mix-blend-mode:multiply"/>
<path d="M16.8438 140.594L19.25 138.875L29.9062 160.531L33 172.906L31.625 179.781L20.9688 177.031L6.1875 172.906V166.375V159.156L7.90625 155.375L16.8438 140.594Z" fill="#EC6547" fill-opacity="0.75" style="mix-blend-mode:multiply"/>
<path d="M222.062 140.594L219.656 138.875L209 160.531L205.906 172.906L207.281 179.781L217.938 177.031L232.719 172.906V166.375V159.156L231 155.375L222.062 140.594Z" fill="#EC6547" fill-opacity="0.75" style="mix-blend-mode:multiply"/>
<g style="mix-blend-mode:multiply">
<path d="M49.1562 39.1875L37.5068 65.5702C37.4817 65.6269 37.4688 65.6883 37.4688 65.7503C37.4688 65.9055 37.5493 66.0494 37.6816 66.1305L103.721 106.639C104.007 106.815 104.331 106.918 104.665 106.939L119.969 107.938L135.217 106.943C135.586 106.919 135.943 106.796 136.248 106.586L154.344 94.1875L177.031 81.4688L200.581 66.9517C201.464 66.4075 201.805 65.2923 201.379 64.3471L192.5 44.6875L179.099 20.9015C178.873 20.4996 178.518 20.1853 178.092 20.0086L164.656 14.4375L120.255 0.201885C119.845 0.0705865 119.405 0.0705858 118.995 0.201884L74.5938 14.4375L60.8464 19.6746C60.4002 19.8446 60.0268 20.1641 59.7899 20.5787L49.1562 39.1875Z" fill="#EC6547"/>
</g>
<path d="M103.932 134.459L96.6543 136.157C95.2944 136.474 94.67 138.052 95.4446 139.214L97.2812 141.969L100.719 148.844L103.469 155.375L105.207 158.355C105.612 159.049 106.393 159.434 107.189 159.332L119.036 157.813C119.199 157.792 119.364 157.791 119.527 157.81L132.322 159.334C133.16 159.433 133.97 158.997 134.348 158.242L136.812 153.312L141.625 144.375L145.062 138.531C145.578 137.5 144.959 136.262 143.825 136.056L134.927 134.439C134.809 134.417 134.69 134.406 134.57 134.406H119.281H104.386C104.234 134.406 104.081 134.424 103.932 134.459Z" fill="#EC6547" style="mix-blend-mode:darken"/>
<path d="M136.469 303.532L133.031 302.844H132.688L128.562 303.875L125.125 304.563L122.031 304.907H119.969L120.312 346.844H130.281L136.812 340.657L141.625 335.5L145.406 330.688L149.188 325.532L154.344 317.969L156.75 314.188L147.125 307.657L143.688 305.938L141.281 304.563L138.875 303.875L136.469 303.532Z" fill="#AE6C9E" fill-opacity="0.75" style="mix-blend-mode:multiply"/>
<path d="M94.1875 201.438L83.1875 210.719L82.5 214.844L82.1562 222.062V230.656L83.1875 240.625L92.125 243.031L96.5938 243.375L119.281 242.688L99 242.344L94.875 240.281L92.4688 238.219L91.7812 235.812V233.406V231.688L92.125 229.969L93.5 228.594L95.2188 226.531V221.719V216.562L94.875 210.719V205.562L94.1875 201.438Z" fill="#AE6C9E" fill-opacity="0.75" style="mix-blend-mode:multiply"/>
<path d="M145.062 201.438L156.406 211.062L157.094 216.219L157.438 222.062V231L156.406 240.625L150.562 242.344L145.75 243.031L135.094 243.375L119.969 243.031V242.688L140.25 242.344L144.375 240.281L146.094 238.219L147.469 235.812V233.406V231.688L147.125 229.969L145.75 228.594L144.031 226.531V221.719V216.562L144.375 210.719V205.562L145.062 201.438Z" fill="#AE6C9E" fill-opacity="0.75" style="mix-blend-mode:multiply"/>
<path d="M69.7812 263.657L64.9688 272.25L71.5 279.469V276.375L69.7812 263.657Z" fill="#AE6C9E" fill-opacity="0.75" style="mix-blend-mode:multiply"/>
<path d="M170.156 263.657L174.969 272.25L168.438 279.469V275.344L170.156 263.657Z" fill="#AE6C9E" fill-opacity="0.75" style="mix-blend-mode:multiply"/>
<path d="M115.156 172.906V170.844V170.5H119.625L123.406 170.844L124.094 177.031L130.281 197.656L119.969 190.438L110.344 196.281L111.031 194.562L112.406 189.062L114.125 182.188L115.156 177.031V172.906Z" fill="#AE6C9E" fill-opacity="0.75" style="mix-blend-mode:multiply"/>
<path d="M39.1875 182.188L31.9688 180.125L33 171.531H36.4375H39.1875L42.2812 170.844L45.0312 169.469L47.7812 168.781H50.1875L55.3438 169.469H65.6562L72.1875 168.781L74.5938 167.75L80.7812 173.594L88.6875 180.125L80.7812 184.594L76.3125 186.656L71.5 188.031L67.0312 188.719H60.1562H55.3438L53.625 188.031L45.0312 184.594L39.1875 182.188Z" fill="#AE6C9E" fill-opacity="0.75" style="mix-blend-mode:multiply"/>
<path d="M199.719 182.188L206.938 180.125L205.906 171.531H202.469H199.719L196.625 170.844L193.875 169.469L191.125 168.781H188.719L183.562 169.469H173.25L166.719 168.781L164.312 167.75L158.125 173.594L150.219 180.125L158.125 184.594L162.594 186.656L167.406 188.031L171.875 188.719H178.75H183.562L185.281 188.031L193.875 184.594L199.719 182.188Z" fill="#AE6C9E" fill-opacity="0.75" style="mix-blend-mode:multiply"/>
<path d="M103.812 106.906L84.9062 94.875L86.625 118.938L93.8438 136.469L104.844 134.406H119.625H135.438L146.094 136.469L152.969 118.938L154 94.5312L135.438 106.906L119.625 107.938L103.812 106.906Z" fill="#AE6C9E" fill-opacity="0.75" style="mix-blend-mode:multiply"/>
<path d="M125.125 304.563L119.625 304.907L119.953 268.16C119.963 267.071 120.538 266.065 121.472 265.505C121.616 265.419 121.765 265.344 121.92 265.282L123.406 264.688L124.567 264.107C125.166 263.808 125.801 263.59 126.457 263.459C126.943 263.362 127.437 263.313 127.933 263.313H128.047C128.618 263.313 129.189 263.369 129.749 263.482L130.625 263.657L135.438 264.688L139.906 265.719L148.5 269.5L155.375 272.938L162.594 275L166.375 275.344L168.438 276.032V278.438H168.094L166.375 279.469L162.938 281.188L160.531 283.594L156.406 288.75L152.281 292.875L148.5 295.625L144.375 298.032L138.531 300.438L132 302.844L125.125 304.563Z" fill="#AE6C9E" fill-opacity="0.75" style="mix-blend-mode:multiply"/>
<path d="M114.469 304.563L119.969 304.907L119.641 268.16C119.631 267.071 119.055 266.065 118.121 265.505C117.978 265.419 117.828 265.344 117.673 265.282L116.188 264.688L115.026 264.107C114.428 263.808 113.793 263.59 113.137 263.459C112.651 263.362 112.157 263.313 111.661 263.313H111.547C110.975 263.313 110.405 263.369 109.845 263.482L108.969 263.657L104.156 264.688L101.201 265.37C100.194 265.602 99.2115 265.929 98.2659 266.345L91.0938 269.5L84.2188 272.938L77 275L73.2188 275.344L71.1562 276.032V278.438H71.5L73.2188 279.469L76.6562 281.188L79.0625 283.594L83.1875 288.75L87.3125 292.875L91.0938 295.625L95.2188 298.032L101.062 300.438L107.594 302.844L114.469 304.563Z" fill="#AE6C9E" fill-opacity="0.75" style="mix-blend-mode:multiply"/>
<defs>
<linearGradient id="paint0_linear_237_2736" x1="95.9063" y1="250.594" x2="100.719" y2="269.844" gradientUnits="userSpaceOnUse">
<stop stop-color="#EC6547"/>
<stop offset="1" stop-color="#EC6547" stop-opacity="0"/>
</linearGradient>
<linearGradient id="paint1_linear_237_2736" x1="143" y1="246.469" x2="139.906" y2="272.25" gradientUnits="userSpaceOnUse">
<stop stop-color="#EC6547"/>
<stop offset="1" stop-color="#EC6547" stop-opacity="0"/>
</linearGradient>
</defs>
</svg>
